X: 21353
T: GENERAL McDONALD'S REEL
R: reel
B: K\"ohler's Violin Repository, v.2, 1885 p.135 #3
F: http://www.archive.org/details/klersviolinrepos02rugg
Z: 2012 John Chambers <jc:trillian.mit.edu>
M: C|
L: 1/8
K: C
uf |\
ec~c2 Gc~c2 | ec~c2 (eg)ga | ec~c2 (Gc)EG | F_ED_B, DFF :|
uf |\
(ec) (gc) (ac) (gc) | (ec)gc (eg)ga | (ec) (gc) (ac) (gc) | (d/c/_B) (fB) dffg |
(e/d/c) (gc) (ac) (gc) | (ec)gc (ef)ga | ecdB cGAF | (D/_E/F) ~_B2 DB,"^Fine."B, "_D.C."|]

%%sep 2 1 500

